X: 3467
T: Betty O'Brien
R: barndance
M: 4/4
K: Dmajor
F2 A2 A2 d2|BA G2 F2 E2|D2 D2 E2 D2|B4 A4|
F2 A2 A2 d2|BABd e2 d2|BAGF GFED|D4 D4||
A2 A2 A2 D2|B2 B2 B2 D2|EFED EDEF|A4 A4|
BcBA F2 A2|BcBA GFED|D2 D2 DEFD|E4 E4|
F2 A2 A2 Bc|d4 d4|BcBA F2 A2|B3c d2 FG|
A2 FE D2 F2|D2 EF A2 A2|B2 D2 EFED|D4 D4||

